astica-dark/symbolic/status/battery-level-70-charging-symbolic.svg

<svg width="16" height="16" enable-background="new" version="1.1" xmlns="http://www.w3.org/2000/svg">
 <title>Paper Symbolic Icon Theme</title>
 <g fill="#eff0f1">
  <path d="m5 5v3.0566l1.834-3.0566h-1.834zm4 0v2h2v-2h-2zm-1.8965 3.4375-0.33789 0.5625h1.2188a1.0001 1.0001 0 0 1-0.88086-0.5625zm0.91211 0.5625a1.0001 1.0001 0 0 1 0.88086 0.5625l0.33789-0.5625h-1.2188zm2.9844 0.94336-1.834 3.0566h1.834v-3.0566zm-6 1.0566v2h2v-2h-2z" opacity=".35"/>
  <path d="m6 1v1h4v-1h-4zm-2.1562 2c-0.281 0.047-0.84375 0.25-0.84375 1v10c0 1 1 1 1 1h8c1 0 1-1 1-1v-10s0-1-1-1h-8s-0.06325-0.016-0.15625 0zm0.15625 1h3.9707 4.0293v10h-8v-10zm1 3v1.0566l0.63477-1.0566h-0.63477zm2.1035 1.4375-0.33789 0.5625h1.2188a1.0001 1.0001 0 0 1-0.88086-0.5625zm0.91211 0.5625a1.0001 1.0001 0 0 1 0.88086 0.5625l0.33789-0.5625h-1.2188zm2.9844 0.94336-1.834 3.0566h1.834v-3.0566zm-6 1.0566v2h2v-2h-2z"/>
 </g>
 <path d="m8 5v3h3l-3 5v-3h-3z" enable-background="new" fill="#eff0f1"/>
</svg>

<?xml version="1.0" encoding="UTF-8" standalone="no"?>
<svg
   width="16"
   height="16"
   enable-background="new"
   version="1.1"
   id="svg12"
   sodipodi:docname="battery-level-70-charging-symbolic.svg"
   inkscape:version="1.1.1 (3bf5ae0d25, 2021-09-20, custom)"
   xmlns:inkscape="http://www.inkscape.org/namespaces/inkscape"
   xmlns:sodipodi="http://sodipodi.sourceforge.net/DTD/sodipodi-0.dtd"
   xmlns="http://www.w3.org/2000/svg"
   xmlns:svg="http://www.w3.org/2000/svg"
   xmlns:rdf="http://www.w3.org/1999/02/22-rdf-syntax-ns#"
   xmlns:cc="http://creativecommons.org/ns#"
   xmlns:dc="http://purl.org/dc/elements/1.1/">
  <defs
     id="defs16" />
  <sodipodi:namedview
     id="namedview14"
     pagecolor="#ffffff"
     bordercolor="#666666"
     borderopacity="1.0"
     inkscape:pageshadow="2"
     inkscape:pageopacity="0.0"
     inkscape:pagecheckerboard="0"
     showgrid="false"
     inkscape:zoom="39.375"
     inkscape:cx="8"
     inkscape:cy="8"
     inkscape:window-width="1920"
     inkscape:window-height="1011"
     inkscape:window-x="0"
     inkscape:window-y="0"
     inkscape:window-maximized="1"
     inkscape:current-layer="g8" />
  <title
     id="title2">Paper Symbolic Icon Theme</title>
  <g
     fill="#dedede"
     id="g8">
    <path
       d="m 6,1 v 1 h 4 V 1 Z M 3.8438,3 C 3.5628,3.047 3.00005,3.25 3.00005,4 v 10 c 0,1 1,1 1,1 h 8 c 1,0 1,-1 1,-1 V 4 c 0,0 0,-1 -1,-1 h -8 c 0,0 -0.06325,-0.016 -0.15625,0 z m 0.15625,1 h 3.9707 4.0293 v 10 h -8 z m 1,3 V 8.0566 L 5.63482,7 Z M 7.10355,8.4375 6.76566,9 h 1.2188 A 1.0001,1.0001 0 0 1 7.1036,8.4375 Z M 8.01566,9 A 1.0001,1.0001 0 0 1 8.89652,9.5625 L 9.23441,9 h -1.2188 z m 2.9844,0.94336 -1.834,3.0566 h 1.834 z m -6,1.0566 v 2 h 2 v -2 z"
       id="path6" />
  </g>
  <path
     d="m8 5v3h3l-3 5v-3h-3z"
     enable-background="new"
     fill="#dedede"
     id="path10" />
  <metadata
     id="metadata835">
    <rdf:RDF>
      <cc:Work
         rdf:about="">
        <dc:title>Paper Symbolic Icon Theme</dc:title>
      </cc:Work>
    </rdf:RDF>
  </metadata>
</svg>
